docs/.gitbook/assets/icon-app-window-list-16@dark.svg

<svg width="32" height="32" viewBox="0 0 16 16" fill="none" xmlns="http://www.w3.org/2000/svg">
<rect x="0" y="0" width="16" height="16" fill="#181c1f"/>
<path fill-rule="evenodd" clip-rule="evenodd" d="M1 3.75C1 2.23122 2.23122 1 3.75 1H12.25C13.7688 1 15 2.23122 15 3.75V5.25V12.25C15 13.7688 13.7688 15 12.25 15H3.75C2.23122 15 1 13.7688 1 12.25V5.25V3.75ZM3.75 2.5C3.05964 2.5 2.5 3.05964 2.5 3.75V4.5H13.5V3.75C13.5 3.05964 12.9404 2.5 12.25 2.5H3.75ZM13.5 6H2.5V12.25C2.5 12.9404 3.05964 13.5 3.75 13.5H12.25C12.9404 13.5 13.5 12.9404 13.5 12.25V6ZM4 8.25C4 7.83579 4.33579 7.5 4.75 7.5H11.25C11.6642 7.5 12 7.83579 12 8.25C12 8.66421 11.6642 9 11.25 9H4.75C4.33579 9 4 8.66421 4 8.25ZM4 11.25C4 10.8358 4.33579 10.5 4.75 10.5H11.25C11.6642 10.5 12 10.8358 12 11.25C12 11.6642 11.6642 12 11.25 12H4.75C4.33579 12 4 11.6642 4 11.25Z" fill="#fff"/>
</svg>

<svg xmlns="http://www.w3.org/2000/svg" width="32" height="32" fill="none" viewBox="0 0 16 16"><path fill="#181c1f" d="M0 0h16v16H0z"/><path fill="#fff" fill-rule="evenodd" d="M1 3.75A2.75 2.75 0 0 1 3.75 1h8.5A2.75 2.75 0 0 1 15 3.75v8.5A2.75 2.75 0 0 1 12.25 15h-8.5A2.75 2.75 0 0 1 1 12.25zM3.75 2.5c-.69 0-1.25.56-1.25 1.25v.75h11v-.75c0-.69-.56-1.25-1.25-1.25zM13.5 6h-11v6.25c0 .69.56 1.25 1.25 1.25h8.5c.69 0 1.25-.56 1.25-1.25zM4 8.25a.75.75 0 0 1 .75-.75h6.5a.75.75 0 0 1 0 1.5h-6.5A.75.75 0 0 1 4 8.25m0 3a.75.75 0 0 1 .75-.75h6.5a.75.75 0 0 1 0 1.5h-6.5a.75.75 0 0 1-.75-.75" clip-rule="evenodd"/></svg>
